img/rating.svg

<svg width="14" height="13" viewBox="0 0 14 13" fill="none" xmlns="http://www.w3.org/2000/svg">
<path fill-rule="evenodd" clip-rule="evenodd" d="M5.93269 1.28395C6.33796 0.349362 7.66334 0.349361 8.06861 1.28395L9.29455 4.11107L12.3621 4.40338C13.3762 4.50001 13.7858 5.76052 13.0222 6.43476L10.7123 8.47433L11.3822 11.4821C11.6037 12.4764 10.5314 13.2555 9.6542 12.7376L7.00065 11.171L4.3471 12.7376C3.4699 13.2555 2.39764 12.4764 2.61911 11.4821L3.28905 8.47433L0.979126 6.43476C0.215517 5.76052 0.62508 4.50001 1.63916 4.40338L4.70675 4.11108L5.93269 1.28395Z" fill="#F89828"/>
</svg>

<svg width="14" height="13" fill="none" xmlns="http://www.w3.org/2000/svg"><path fill-rule="evenodd" clip-rule="evenodd" d="M5.933 1.284c.405-.935 1.73-.935 2.136 0L9.295 4.11l3.067.292c1.014.097 1.424 1.358.66 2.032l-2.31 2.04.67 3.007c.222.994-.85 1.774-1.728 1.256L7.001 11.17l-2.654 1.567c-.877.518-1.95-.262-1.728-1.256l.67-3.008-2.31-2.04c-.763-.673-.354-1.934.66-2.03l3.068-.293 1.226-2.827z" fill="#F89828"/></svg>
